src/images/checked.svg

<svg width="20" height="20" viewBox="0 0 20 20" fill="none" xmlns="http://www.w3.org/2000/svg">
<path fill-rule="evenodd" clip-rule="evenodd" d="M16 2H4C2.89543 2 2 2.89543 2 4V16C2 17.1046 2.89543 18 4 18H16C17.1046 18 18 17.1046 18 16V4C18 2.89543 17.1046 2 16 2ZM4 0C1.79086 0 0 1.79086 0 4V16C0 18.2091 1.79086 20 4 20H16C18.2091 20 20 18.2091 20 16V4C20 1.79086 18.2091 0 16 0H4Z" fill="#F06000"/>
<path d="M8.53561 12.9689C8.41375 12.9181 8.30315 12.8438 8.21019 12.75L6.29019 10.83C6.10188 10.6417 5.99609 10.3863 5.99609 10.12C5.99609 9.85372 6.10188 9.59833 6.29019 9.41002C6.47849 9.22172 6.73388 9.11593 7.00019 9.11593C7.26649 9.11593 7.52188 9.22172 7.71019 9.41002L8.92019 10.63L12.2902 7.25002C12.4785 7.06172 12.7339 6.95593 13.0002 6.95593C13.2665 6.95593 13.5219 7.06172 13.7102 7.25002C13.8985 7.43833 14.0043 7.69372 14.0043 7.96002C14.0043 8.22633 13.8985 8.48172 13.7102 8.67002L9.63019 12.75C9.53722 12.8438 9.42662 12.9181 9.30476 12.9689C9.1829 13.0197 9.0522 13.0458 8.92019 13.0458C8.78817 13.0458 8.65747 13.0197 8.53561 12.9689Z" fill="#F06000"/>
</svg>

<svg width="20" height="20" fill="none" xmlns="http://www.w3.org/2000/svg"><path fill-rule="evenodd" clip-rule="evenodd" d="M16 2H4a2 2 0 0 0-2 2v12a2 2 0 0 0 2 2h12a2 2 0 0 0 2-2V4a2 2 0 0 0-2-2zM4 0a4 4 0 0 0-4 4v12a4 4 0 0 0 4 4h12a4 4 0 0 0 4-4V4a4 4 0 0 0-4-4H4z" fill="#F06000"/><path d="M8.536 12.969a1 1 0 0 1-.326-.219l-1.92-1.92a1.004 1.004 0 1 1 1.42-1.42l1.21 1.22 3.37-3.38a1.004 1.004 0 0 1 1.42 1.42l-4.08 4.08a1 1 0 0 1-1.094.219z" fill="#F06000"/></svg>
